localPackages/DesignSystem/Sources/DesignSystem/Resources/Assets.xcassets/IconSet/ic-lock-open-filled-2.imageset/ic-lock-open-filled-2.svg

<svg width="24" height="24" viewBox="0 0 24 24" fill="none" xmlns="http://www.w3.org/2000/svg">
<g id="ic-lock-open-filled-2">
<path id="Icon" fill-rule="evenodd" clip-rule="evenodd" d="M6 1.5C2.68629 1.5 0 4.18629 0 7.5V8.25C0 8.66421 0.335786 9 0.75 9C1.16421 9 1.5 8.66421 1.5 8.25V7.5C1.5 5.01472 3.51472 3 6 3C8.48528 3 10.5 5.01472 10.5 7.5C9.01747 7.50116 8.24038 7.52007 7.63803 7.82698C7.07354 8.1146 6.6146 8.57354 6.32698 9.13803C6 9.77976 6 10.6198 6 12.3V17.7C6 19.3802 6 20.2202 6.32698 20.862C6.6146 21.4265 7.07354 21.8854 7.63803 22.173C8.27976 22.5 9.11984 22.5 10.8 22.5H19.2C20.8802 22.5 21.7202 22.5 22.362 22.173C22.9265 21.8854 23.3854 21.4265 23.673 20.862C24 20.2202 24 19.3802 24 17.7V12.3C24 10.6198 24 9.77976 23.673 9.13803C23.3854 8.57354 22.9265 8.1146 22.362 7.82698C21.7202 7.5 20.8802 7.5 19.2 7.5H12C12 4.18629 9.31371 1.5 6 1.5ZM15.706 14.8238C16.1785 14.5713 16.5 14.0732 16.5 13.5C16.5 12.6716 15.8284 12 15 12C14.1716 12 13.5 12.6716 13.5 13.5C13.5 14.0732 13.8215 14.5713 14.294 14.8238L13.6398 17.4409C13.5688 17.7249 13.7836 18 14.0764 18H15.9236C16.2164 18 16.4312 17.7249 16.3602 17.4409L15.706 14.8238Z" fill="#0F0F0F"/>
</g>
</svg>

<svg xmlns="http://www.w3.org/2000/svg" width="24" height="24" viewBox="0 0 24 24">
  <g class="ic-lock-open-filled-2">
    <path fill-rule="evenodd" d="M6 1.5a6 6 0 0 0-6 6v.75a.75.75 0 0 0 1.5 0V7.5a4.5 4.5 0 0 1 9 0c-1.483.001-2.26.02-2.862.327a3 3 0 0 0-1.311 1.311C6 9.78 6 10.62 6 12.3v5.4c0 1.68 0 2.52.327 3.162a3 3 0 0 0 1.311 1.311c.642.327 1.482.327 3.162.327h8.4c1.68 0 2.52 0 3.162-.327a3 3 0 0 0 1.311-1.311C24 20.22 24 19.38 24 17.7v-5.4c0-1.68 0-2.52-.327-3.162a3 3 0 0 0-1.311-1.311C21.72 7.5 20.88 7.5 19.2 7.5H12a6 6 0 0 0-6-6Zm9.706 13.324a1.5 1.5 0 1 0-1.412 0l-.654 2.617a.45.45 0 0 0 .436.559h1.848a.45.45 0 0 0 .436-.56l-.654-2.616Z" class="Icon"/>
  </g>
</svg>
